X: 108
T: Mill Field
M:6/8
L:1/8
Q:160
S:Playford
O:Manuscript
A:English
K:G
G|A2 B c>BA|B>AF d2 B|A2 F D2 G|F>EF G2 G|A2B c>BA|B>AG d2 c|A2F D2 G|F> EF G2:|
|: G|A2 F D2 d|B2 G G2 B|A2 F D2 G|F>EF G2 G|A2 F D2 d |B2 G G2 B|A2 F D2 G |F>EF G2:|

